icons/ticket-arrow-left.svg

<svg xmlns="http://www.w3.org/2000/svg" width="24" height="24" viewBox="0 0 24 24">
  <path d="M20,4 C21.5976809,4 22.9036609,5.24891996 22.9949073,6.82372721 L23,7 L23,10 L22,10 C20.8954305,10 20,10.8954305 20,12 C20,13.0543618 20.8158778,13.9181651 21.8507377,13.9945143 L22,14 L23,14 L23,17 C23,18.5976809 21.75108,19.9036609 20.1762728,19.9949073 L20,20 L4,20 C2.40231912,20 1.09633912,18.75108 1.00509269,17.1762728 L1,17 L1,14 L2,14 C3.1045695,14 4,13.1045695 4,12 C4,10.9456382 3.18412221,10.0818349 2.14926234,10.0054857 L2,10 L1,10 L1,7 C1,5.40231912 2.24891996,4.09633912 3.82372721,4.00509269 L4,4 L20,4 Z M8.01101934,12.1489612 C8.01362808,12.165949 8.01670217,12.1833753 8.02024007,12.2007258 C8.0246398,12.2227461 8.02983363,12.2444365 8.03572097,12.2658396 C8.04009773,12.2814633 8.04472872,12.2968513 8.04973809,12.3121425 C8.05612249,12.3317977 8.06331574,12.3515792 8.07110396,12.3710585 L8.09367336,12.4232215 L8.09367336,12.4232215 C8.10337664,12.4438914 8.11379392,12.4642939 8.12487577,12.484277 C8.13149883,12.4963944 8.13860692,12.5086131 8.14599545,12.5207088 C8.1617187,12.546275 8.17849009,12.5711307 8.19631351,12.5951593 C8.20071786,12.6012086 8.20517454,12.6070733 8.20970461,12.6128994 C8.21507113,12.6196628 8.2173721,12.6225624 8.21968877,12.625449 L8.29289322,12.7071068 L11.2928932,15.7071068 C11.6834175,16.0976311 12.3165825,16.0976311 12.7071068,15.7071068 C13.0675907,15.3466228 13.0953203,14.7793918 12.7902954,14.3871006 L12.7071068,14.2928932 L11.415,13 L15,13 C15.5522847,13 16,12.5522847 16,12 C16,11.4871642 15.6139598,11.0644928 15.1166211,11.0067277 L15,11 L11.415,11 L12.7071068,9.70710678 C13.0976311,9.31658249 13.0976311,8.68341751 12.7071068,8.29289322 C12.3466228,7.93240926 11.7793918,7.90467972 11.3871006,8.20970461 L11.2928932,8.29289322 L8.29289322,11.2928932 L8.24220802,11.347434 L8.24220802,11.347434 L8.232,11.359 L8.21968877,11.374551 L8.216,11.378 L8.22,11.374 L8.19633458,11.4046934 L8.19633458,11.4046934 C8.17849009,11.4288693 8.1617187,11.453725 8.14606743,11.4793398 L8.12467117,11.5159379 L8.12467117,11.5159379 C8.11379392,11.5357061 8.10337664,11.5561086 8.09365378,11.5769009 L8.07122549,11.628664 L8.07122549,11.628664 C8.06331574,11.6484208 8.05612249,11.6682023 8.04954668,11.6882636 C8.04472872,11.7031487 8.04009773,11.7185367 8.03584514,11.734007 C8.02983363,11.7555635 8.0246398,11.7772539 8.02016515,11.7992059 C8.01670217,11.8166247 8.01362808,11.834051 8.0110178,11.8515331 L8.00399798,11.909968 L8.00399798,11.909968 C8.00307004,11.9208131 8.00232561,11.9308872 8.0017331,11.9409686 L8.00018018,11.980824 L8.00004511,11.9904013 L8.00004511,11.9904013 L8,12 L8,12.018 L8.002,12.059 L8.001,12.059 L8.002,12.075 L8.01101934,12.1489612 L8.01101934,12.1489612 Z"/>
</svg>

<svg xmlns="http://www.w3.org/2000/svg" viewBox="0 0 24 24">
  <path d="M20 4a3 3 0 0 1 3 2.82V10h-1a2 2 0 0 0-.15 4H23v3a3 3 0 0 1-2.82 3H4a3 3 0 0 1-3-2.82V14h1a2 2 0 0 0 .15-4H1V7a3 3 0 0 1 2.82-3H20zM8.01 12.15a1.08 1.08 0 0 0 .06.22l.02.05a1.02 1.02 0 0 0 .13.2l.07.09 3 3a1 1 0 0 0 1.5-1.32l-.08-.1L11.4 13H15a1 1 0 0 0 .12-2H11.4l1.3-1.3a1 1 0 0 0-1.32-1.49l-.1.08-3 3-.05.06-.02.02-.02.03-.05.08-.03.04-.03.06-.02.05a.99.99 0 0 0-.06.22v.09l-.01.04v.09l.01.08z"/>
</svg>
